app/component-library/components/Icons/Icon/assets/wallet.svg

<svg width="24" height="24" viewBox="0 0 24 24" fill="none" xmlns="http://www.w3.org/2000/svg">
<path d="M22.281 10.9702V13.0302C22.281 13.5802 21.841 14.0302 21.281 14.0502H19.321C18.241 14.0502 17.251 13.2602 17.161 12.1802C17.101 11.5502 17.341 10.9602 17.761 10.5502C18.131 10.1702 18.641 9.9502 19.201 9.9502H21.281C21.841 9.9702 22.281 10.4202 22.281 10.9702Z" fill="currentColor"/>
<path d="M20.7508 15.55H19.3208C17.4208 15.55 15.8208 14.12 15.6608 12.3C15.5708 11.26 15.9508 10.22 16.7108 9.48C17.3508 8.82 18.2408 8.45 19.2008 8.45H20.7508C21.0408 8.45 21.2808 8.21 21.2508 7.92C21.0308 5.49 19.4208 3.83 17.0308 3.55C16.7908 3.51 16.5408 3.5 16.2808 3.5H7.28076C7.00076 3.5 6.73076 3.52 6.47076 3.56C3.92076 3.88 2.28076 5.78 2.28076 8.5V15.5C2.28076 18.26 4.52076 20.5 7.28076 20.5H16.2808C19.0808 20.5 21.0108 18.75 21.2508 16.08C21.2808 15.79 21.0408 15.55 20.7508 15.55ZM13.2808 9.75H7.28076C6.87076 9.75 6.53076 9.41 6.53076 9C6.53076 8.59 6.87076 8.25 7.28076 8.25H13.2808C13.6908 8.25 14.0308 8.59 14.0308 9C14.0308 9.41 13.6908 9.75 13.2808 9.75Z" fill="currentColor"/>
</svg>

<svg xmlns="http://www.w3.org/2000/svg" width="24" height="24" viewBox="0 0 24 24" fill="none"><path fill="currentColor" d="M22.281 10.97v2.06c0 .55-.44 1-1 1.02h-1.96c-1.08 0-2.07-.79-2.16-1.87-.06-.63.18-1.22.6-1.63.37-.38.88-.6 1.44-.6h2.08c.56.02 1 .47 1 1.02Z"/><path fill="currentColor" d="M20.75 15.55h-1.43c-1.9 0-3.5-1.43-3.66-3.25-.09-1.04.29-2.08 1.05-2.82.64-.66 1.53-1.03 2.49-1.03h1.55c.29 0 .53-.24.5-.53-.22-2.43-1.83-4.09-4.22-4.37-.24-.04-.49-.05-.75-.05h-9c-.28 0-.55.02-.81.06-2.55.32-4.19 2.22-4.19 4.94v7c0 2.76 2.24 5 5 5h9c2.8 0 4.73-1.75 4.97-4.42a.49.49 0 0 0-.5-.53Zm-7.47-5.8h-6c-.41 0-.75-.34-.75-.75s.34-.75.75-.75h6c.41 0 .75.34.75.75s-.34.75-.75.75Z"/></svg>
